assets/svgs/brands-grey/BrandsGrey87.svg

<svg role="img" viewBox="0 0 24 24" xmlns="http://www.w3.org/2000/svg"><title>Chase icon</title><path d="m8.5903 23.974q-0.18502 0-0.3304-0.0661-0.14538-0.0661-0.27753-0.17181-0.13216-0.10572-0.18502-0.26431-0.05286-0.15859-0.0793-0.34361l0.02643-5.9207h15.648l-7.1101 6.7665h-7.7181zm15.41-8.5639q-0.02643 0.18503-0.0793 0.3304-0.05286 0.14537-0.18502 0.26432-0.13216 0.11894-0.27753 0.18502-0.14538 0.0661-0.3304 0.0661h-5.9207l-0.02643-15.674 6.793 7.1366v7.6916zm-8.5903-15.383q0.15859 0 0.3304 0.0661t0.26432 0.17181q0.09251 0.10573 0.17181 0.26432 0.0793 0.15859 0.05286 0.34361l0.02643 5.9207h-15.7l7.163-6.7665h7.6652zm-15.383 8.5639q-0.02643-0.18502 0.05286-0.3304 0.0793-0.14537 0.18502-0.26431 0.10573-0.11895 0.26432-0.18503 0.15859-0.0661 0.31718-0.0661h5.9471l-0.02643 15.674-6.7401-7.1366-0.026431-7.6916z"/></svg>

<svg xmlns="http://www.w3.org/2000/svg" viewBox="0 0 24 24"><path d="M8.59 23.974q-.185 0-.33-.066-.145-.066-.278-.172-.132-.106-.185-.264-.053-.159-.079-.344l.026-5.92h15.648l-7.11 6.766H8.564zM24 15.41q-.026.185-.079.33-.053.146-.185.265-.132.119-.278.185-.145.066-.33.066h-5.92L17.18.582l6.793 7.137v7.691zM15.41.027q.159 0 .33.066t.265.172q.092.106.172.264.079.159.052.344l.027 5.92H.556L7.719.028h7.665zM.027 8.591q-.026-.185.053-.33.08-.146.185-.265.106-.119.264-.185.159-.066.317-.066h5.947L6.767 23.42l-6.74-7.136L.001 8.59z"/></svg>
